icon/lg/madge.svg

<?xml version="1.0" encoding="UTF-8"?>
<svg viewBox="0 0 256 372" version="1.1" xmlns="http://www.w3.org/2000/svg" xmlns:xlink="http://www.w3.org/1999/xlink" height="1em" width="1em">
  <desc>
    Created with Sketch.
  </desc>
  <defs>
    <linearGradient x1="32.157%" y1="46.417%" x2="70.686%" y2="49.75%" id="linearGradient-1">
      <stop stop-color="#91C5AA" offset="0%"/>
      <stop stop-color="#3965AF" offset="100%"/>
    </linearGradient>
    <linearGradient x1="53.539%" y1="68.101%" x2="53.539%" y2="19.969%" id="linearGradient-2">
      <stop stop-color="#803FA5" offset="0%"/>
      <stop stop-color="#4B114A" offset="100%"/>
    </linearGradient>
  </defs>
  <g stroke="none" stroke-width="1" fill="none" fill-rule="evenodd">
    <g>
      <polygon fill="#C4BAFF" fill-rule="nonzero" points="129.793852 61.025375 189.270332 283.036907 70.3173724 283.036907"/>
      <polygon fill-opacity="0.498" fill="#6750E5" fill-rule="nonzero" transform="translate(162.302787, 141.561058) scale(-1, 1) translate(-162.302787, -141.561058) " points="119.568669 0 254.513595 283.122117 70.0919786 283.122117"/>
      <polygon fill-opacity="0.498" fill="#6750E5" fill-rule="nonzero" points="56.920184 0 189.488854 283.122117 0 283.122117"/>
      <path d="M53.3361618,351.581923 L21.3985713,351.581923 L13.0880334,369.700828 L0.960446194,369.700828 L37.874696,290.412499 L73.4843845,369.700828 L61.1635289,369.700828 L53.3361618,351.581923 Z M48.7460391,341.000483 L37.6814276,315.634015 L26.0853282,341.000483 L48.7460391,341.000483 Z M74.9757667,369.700828 L74.9757667,295.099256 L90.6305006,295.099256 C98.1357916,295.099256 104.062628,295.84011 108.411186,297.321842 C113.081862,298.771361 117.317616,301.235507 121.118579,304.714355 C128.81714,311.736472 132.666362,320.964942 132.666362,332.400042 C132.666362,343.867354 128.656083,353.14414 120.635407,360.230681 C116.608964,363.773951 112.389316,366.238098 107.976333,367.623194 C103.853255,369.008291 98.0069461,369.700828 90.4372323,369.700828 L74.9757667,369.700828 Z M86.2336459,359.119387 L91.3069404,359.119387 C96.3641536,359.119387 100.567697,358.587905 103.917698,357.524924 C107.267699,356.397519 110.295539,354.609805 113.001309,352.161728 C118.541695,347.104514 121.311847,340.517353 121.311847,332.400042 C121.311847,324.218308 118.573906,317.58283 113.097943,312.493405 C108.169577,307.951576 100.905982,305.680697 91.3069404,305.680697 L86.2336459,305.680697 L86.2336459,359.119387 Z M177.353214,330.853895 L208.179511,330.853895 L208.179511,333.318067 C208.179511,338.922876 207.519184,343.88338 206.198511,348.199728 C204.910049,352.193959 202.735802,355.930443 199.675705,359.40929 C192.750223,367.204485 183.940497,371.102023 173.246262,371.102023 C162.809721,371.102023 153.871149,367.333329 146.430282,359.795827 C138.989414,352.226113 135.269036,343.142593 135.269036,332.544994 C135.269036,321.721912 139.053837,312.54176 146.623551,305.004257 C154.193264,297.434543 163.405629,293.649742 174.260921,293.649742 C180.091211,293.649742 185.53488,294.841552 190.592093,297.225207 C195.423826,299.608862 200.174959,303.47419 204.845633,308.821306 L196.824998,316.503723 C190.704803,308.354201 183.247941,304.279502 174.454189,304.279502 C166.56236,304.279502 159.942986,307.001335 154.595869,312.445088 C149.248752,317.792204 146.575234,324.492105 146.575234,332.544994 C146.575234,340.855573 149.554757,347.700424 155.513893,353.079753 C161.086492,358.072543 167.126066,360.5689 173.632799,360.5689 C179.173185,360.5689 184.149794,358.700658 188.562777,354.964119 C192.975758,351.195368 195.439905,346.685818 195.95529,341.435336 L177.353214,341.435336 L177.353214,330.853895 Z M255.668755,305.680697 L225.760481,305.680697 L225.760481,323.606334 L254.799048,323.606334 L254.799048,334.187774 L225.760481,334.187774 L225.760481,359.119387 L255.668755,359.119387 L255.668755,369.700828 L214.502602,369.700828 L214.502602,295.099256 L255.668755,295.099256 L255.668755,305.680697 Z" fill="url(#linearGradient-1)" fill-rule="nonzero"/>
      <polygon fill="url(#linearGradient-2)" fill-rule="nonzero" points="26.5414959 263.875684 66.2341711 61.1312002 130.966175 207.693527 198.018086 61.1312002 233.681159 263.875684 204.491286 263.875684 186.293484 150.046311 130.47828 272.547849 76.2504523 149.923994 55.9760039 263.875684"/>
      <path d="M44.666457,243.947573 L69.4048023,110.635378 M129.189137,235.014281 L70.0919786,107.199497 M131.937842,233.639929 L192.409353,107.199497 M215.08617,246.696278 L192.409353,109.948202" stroke-opacity="0.356" stroke="#A28BCA" stroke-width="2" stroke-linecap="square"/>
      <path d="M215.773346,243.260396 C218.050448,243.260396 219.896403,245.106352 219.896403,247.383454 C219.896403,249.660556 218.050448,251.506511 215.773346,251.506511 C213.496244,251.506511 211.650288,249.660556 211.650288,247.383454 C211.650288,245.106352 213.496244,243.260396 215.773346,243.260396 Z M43.9792807,243.260396 C46.2563825,243.260396 48.1023383,245.106352 48.1023383,247.383454 C48.1023383,249.660556 46.2563825,251.506511 43.9792807,251.506511 C41.7021789,251.506511 39.8562231,249.660556 39.8562231,247.383454 C39.8562231,245.106352 41.7021789,243.260396 43.9792807,243.260396 Z M130.56349,235.014281 C132.840591,235.014281 134.686547,236.860237 134.686547,239.137339 C134.686547,241.414441 132.840591,243.260396 130.56349,243.260396 C128.286388,243.260396 126.440432,241.414441 126.440432,239.137339 C126.440432,236.860237 128.286388,235.014281 130.56349,235.014281 Z M70.0919786,105.825144 C72.3690804,105.825144 74.2150362,107.6711 74.2150362,109.948202 C74.2150362,112.225304 72.3690804,114.071259 70.0919786,114.071259 C67.8148768,114.071259 65.968921,112.225304 65.968921,109.948202 C65.968921,107.6711 67.8148768,105.825144 70.0919786,105.825144 Z M192.409353,105.825144 C194.686455,105.825144 196.532411,107.6711 196.532411,109.948202 C196.532411,112.225304 194.686455,114.071259 192.409353,114.071259 C190.132251,114.071259 188.286295,112.225304 188.286295,109.948202 C188.286295,107.6711 190.132251,105.825144 192.409353,105.825144 Z" fill="#DCC6FF" fill-rule="nonzero"/>
    </g>
  </g>
</svg>

<svg width="256" height="372" xmlns="http://www.w3.org/2000/svg"><defs><linearGradient x1="32.157%" y1="46.417%" x2="70.686%" y2="49.75%" id="a"><stop stop-color="#91C5AA" offset="0%"/><stop stop-color="#3965AF" offset="100%"/></linearGradient><linearGradient x1="53.539%" y1="68.101%" x2="53.539%" y2="19.969%" id="b"><stop stop-color="#803FA5" offset="0%"/><stop stop-color="#4B114A" offset="100%"/></linearGradient></defs><g fill="none" fill-rule="evenodd"><path fill="#C4BAFF" fill-rule="nonzero" d="m129.794 61.025 59.476 222.012H70.317z"/><path fill-opacity=".498" fill="#6750E5" fill-rule="nonzero" d="M205.037 0 70.092 283.122h184.422z"/><path fill-opacity=".498" fill="#6750E5" fill-rule="nonzero" d="M56.92 0 189.49 283.122H0z"/><path d="M53.336 351.582H21.4L13.088 369.7H.96l36.915-79.289 35.61 79.289H61.163l-7.828-18.12ZM48.746 341l-11.065-25.366L26.085 341h22.661Zm26.23 28.7v-74.6H90.63c7.505 0 13.432.74 17.78 2.222 4.67 1.45 8.907 3.914 12.708 7.392 7.698 7.022 11.547 16.25 11.547 27.686 0 11.467-4.01 20.744-12.03 27.83-4.027 3.544-8.247 6.008-12.66 7.393-4.123 1.385-9.97 2.078-17.539 2.078H74.976Zm11.258-10.58h5.073c5.057 0 9.26-.532 12.61-1.595 3.35-1.127 6.379-2.915 9.084-5.363 5.54-5.057 8.31-11.645 8.31-19.762 0-8.182-2.737-14.817-8.213-19.907-4.928-4.541-12.192-6.812-21.791-6.812h-5.073v53.438Zm91.12-28.266h30.826v2.464c0 5.605-.66 10.565-1.981 14.882-1.289 3.994-3.463 7.73-6.523 11.21-6.926 7.794-15.736 11.692-26.43 11.692-10.436 0-19.375-3.769-26.816-11.306-7.44-7.57-11.161-16.653-11.161-27.251 0-10.823 3.785-20.003 11.355-27.54 7.57-7.57 16.782-11.355 27.637-11.355 5.83 0 11.274 1.192 16.331 3.575 4.832 2.384 9.583 6.25 14.254 11.596l-8.021 7.683c-6.12-8.15-13.577-12.224-22.37-12.224-7.893 0-14.512 2.721-19.86 8.165-5.346 5.347-8.02 12.047-8.02 20.1 0 8.31 2.98 15.155 8.939 20.535 5.572 4.993 11.612 7.489 18.119 7.489 5.54 0 10.517-1.868 14.93-5.605 4.413-3.769 6.877-8.278 7.392-13.529h-18.602v-10.581Zm78.315-25.173H225.76v17.925H254.8v10.582H225.76v24.931h29.909v10.582h-41.166v-74.602h41.166v10.582Z" fill="url(#a)" fill-rule="nonzero"/><path fill="url(#b)" fill-rule="nonzero" d="M26.541 263.876 66.234 61.13l64.732 146.563L198.018 61.13l35.663 202.745h-29.19l-18.198-113.83-55.815 122.502L76.25 149.924 55.976 263.876z"/><path d="m44.666 243.948 24.739-133.313m59.784 124.38L70.092 107.198m61.846 126.44 60.471-126.44m22.677 139.497L192.41 109.948" stroke-opacity=".356" stroke="#A28BCA" stroke-width="2" stroke-linecap="square"/><path d="M215.773 243.26a4.123 4.123 0 1 1 0 8.247 4.123 4.123 0 0 1 0-8.247Zm-171.794 0a4.123 4.123 0 1 1 0 8.247 4.123 4.123 0 0 1 0-8.247Zm86.584-8.246a4.123 4.123 0 1 1 0 8.246 4.123 4.123 0 0 1 0-8.246ZM70.092 105.825a4.123 4.123 0 1 1 0 8.246 4.123 4.123 0 0 1 0-8.246Zm122.317 0a4.123 4.123 0 1 1 0 8.246 4.123 4.123 0 0 1 0-8.246Z" fill="#DCC6FF" fill-rule="nonzero"/></g></svg>
